X:1
T:6 Lieder
T:Maiglöckchen und die Blümelein
T:Felix Mendelssohn
T:Hoffmann von Fallersleben
T:Maiglöckchen und die Blümelein
T:nach dem Duett Op. 63, No. 6
T:CPDL   —   Creative Commons Attribution Non Commercial 3.0
T:CPDL   —   Creative Commons Attribution Non Commercial 3.0
T:CPDL   —   Creative Commons Attribution Non Commercial 3.0
T:CPDL   —   Creative Commons Attribution Non Commercial 3.0
C:Felix Mendelssohn
Z:Hoffmann von Fallersleben
Z:CPDL   —   Creative Commons Attribution Non Commercial 3.0
%%score [ ( 1 2 ) ( 3 4 ) ]
L:1/8
Q:1/4=90
M:2/4
K:G
V:1 treble nm="Sopran\nAlt"
V:2 treble 
V:3 bass nm="Tenor\nBass"
V:4 bass 
V:1
"^Mäßig bewegt" !>!d2 | BA Bc | dg fe | dB cA | d3 A | BA Bc | dg fe | dA ^ce | d2 z f | dA ^ce | %10
w: 1. Mai-|glöck- chen läu- tet|in dem Tal, das|klingt so hell und|fein; so|kommt zum Rei- gen|all- zu- mal, ihr|lie- ben Blü- me-|lein, ihr|lie- ben Blü- me-|
 d2 z A | A>^G AB | cd e2 | e/d/c/d/ ec | A2 z d | gd ce | dB Ad | gd ce | d3 G | ed cB | %20
w: lein! Die|Blüm- chen blau und|gelb und weiß,|die * kom- men all her-|bei, Ver-|giß- mein- nicht und|Eh- ren- preis und|Veil- chen sind da-|bei, Ver-|giß- mein- nicht und|
 AB c !fermata!z/ c/ | c/B/ A/B/ cF | G4- | G4- | G3 G | GD EG | G2 || !>!d2 | BA Bc | dg fe | %30
w: Eh- ren- preis und|Veil- * chen * sind da-|bei.|_||||2. Mai-|glöck- chen spielt zum|Tanz im Nu und|
 dB cA | d3 A | BA Bc | dg fe | dA ^ce | d2 z f | dA ^ce | d4 | z d =cc | _B>B AA | G z _B2 | %41
w: al- le tan- zen|dann; der|Mond sieht ih- nen|freund- lich zu, hat|sei- ne Freu- de|dran, hat|sei- ne Freu- de|dran.|Den Jun- ker|Reif ver- dross das|sehr, er|
 G>G =F>F | _E2- E z |!pp! G2 GG | GG GG | G2 z2 | z4 | z2 !>!_B2 | AG ^FG | D z !>!d2 | c_B AB | %51
w: kommt ins Tal hin-|ein; _|Mai- glöck- chen|spielt zum Tanz nicht|mehr,||fort|sind die Blü- me-|lein, fort|sind die Blü- me-|
 A z _B z | A z[Q:1/4=80]"^rit." _B z | A4 ||[Q:1/4=90]"^a tempo" !>!d4 | =BA Bc | dg fe | dB cA | %58
w: lein, die|Blü- me-|lein.|3. Doch|kaum der Reif das|Tal ver- lässt, da|ru- fet wie- der|
 d3 A | BA Bc | dg fe | dA ^ce | d2 z f | dA ^ce | d2 z A | A>^G AB | cd e2 | e/d/c/d/ ec | %68
w: schnell * Mai-|glöck- chen zu dem|Früh- lings- fest und|läu- tet dop- pelt|hell *, und|läu- tet dop- pelt|hell. Nun|hält's auch mich nicht|mehr zu Haus,|Mai- * glöck- chen ruft auch|
 A2 z d | gd ce | dB Ad | gd ce | d3 G | ed cB | AB c !fermata!z/ c/ | c/B/ A/B/ cF | G4- | G4- | %78
w: mich: die|Blüm- chen geh'n zum|Tanz hin- aus, zum|Tan- ze geh' auch|ich, die|Blüm- chen geh'n zum|Tanz hin- aus, zum|Tan- * ze _ geh' auch|ich,|_|
 G3 G | dB Ad | !fermata!G2 z2 |] %81
w: * zum|Tan- ze geh' auch|ich.|
V:2
 B2 | GF GA | BG GG | GG FF | G3 F | GF GA | B_B AG | FF GG | F2 x F | FF EG | F2 x F | =F>F FF | %12
w: ||||||||||||
 EG c2 | c/B/A/B/ cA | F2 x F | GG FF | GG FF | GG FF | G3 G | GF EE | EE E x/ E/ | FA FD | %22
w: ||||||||||
 D2 z G | GD EE | DD EE | DD EE | D2 || B2 | GF GA | BG GG | GG FF | G3 F | GF GA | B_B AG | %34
w: bei, Ver-|giß- mein- nicht und|Eh- ren- preis und|Veil- chen sind da-|bei.||||||||
 FF GG | F2 x F | FF EG | F4 | x d cc | _B>B AA | G x _B2 | G>G =F>F | _E2- E x | _E2 EE | %44
w: ||||||||||
 _E=F EF | _E2 G2 | G=F _ED | C z z2 | z4 | z2 _B2 | AG FG | F x E x | F x E x | F4 || z2 D2 | %55
w: |* fort|sind die Blü- me-|lein,||||||||
 GF GA | BG GG | GG FF | G3 F | GF GA | B_B AG | FF GG | F2 x F | FF EG | F2 x F | =F>F FF | %66
w: |||||||||||
 EG c2 | c/B/A/B/ cA | F2 x F | GG FF | GG FF | GG FF | G3 G | GF EE | EE E x/ E/ | FA FD | %76
w: ||||||||||
 D2 z G | GD EE | DD EE | DD EF | G2 x2 |] %81
w: ich, die|Blüm- chen geh'n zum|Tanz hin- aus, *|||
V:3
 !>!D2 | DD DD | DE DC | B,D A,C | B,3 D | DD DD | DD ^CC | DD E^C | DA, A,A, | A,2 A,2 | A,2 z D | %11
w: ||||||||* ihr lie- ben|Blü- me-|lein! *|
 D>D DD | CB, C2 | z4 | z D DD | DD DD | DD DD | DD DD | D3 G, | G,G, G,^G, | %20
w: |||||||||
 A,^G, A, !fermata!z/ A,/ | A,/=G,/ F,/G,/ A,C | B,2 z B, | B,B, CC | B,B, CC | B,B, CC | B,2 || %27
w: |||||||
 !>!D2 | DD DD | DE DC | B,D A,C | B,3 D | DD DD | DD ^CC | DD E^C | DA, A,A, | A,2 A,2 | A,4 | %38
w: ||||||||* hat sei- ne|Freu- de|dran.|
 z D =CC | _B,>B, A,A, | G, z _B,2 | G,>G, =F,>F, | _E,2- E, z |!pp! C2 CC | CD CD | C2 z2 | z4 | %47
w: |||||||||
 G, z z2 | z4 | F, z z2 | z4 | z2 G, z | F, z G, z | F,4 || z2 D2 | DD DD | DE DC | B,D A,C | %58
w: fort,||fort,||die|||||||
 B,3 D | %59
w: |
"^Text wie im Mendelselssohn Duett, im Liederbuch heißt es:\nda rufet wiederum  ... und läutet bin, bam, bum." DD DD | %60
w: |
 DD ^CC | DD E^C | DA, A,A, | A,2 A,2 | A,2 z D | D>D DD | CB, C2 | z4 | z D DD | DD DD | DD DD | %71
w: ||* und läu- tet|dop- pelt|hell. *|||||||
 DD DD | D3 G, | G,G, G,^G, | A,^G, A, !fermata!z/ A,/ | A,/=G,/ F,/G,/ A,C | B,2 z B, | B,B, CC | %78
w: |||||||
 B,B, CC | B,B, CA, | !fermata!B,2 z2 |] %81
w: |||
V:4
 G,2 | G,G, G,G, | G,G, G,G, | G,G, G,G, | G,3 D, | G,G, G,G, | G,G, A,A, | D,D, D,D, | D,D, D,D, | %9
w: |||||||||
 D,2 D,2 | D,2 x D, | D,>D, D,G, | C,G, C,2 | x4 | x D, D,C | B,B, A,C | B,G, D,C | B,B, A,C | %18
w: |||||her- bei, *||||
 B,3 G, | C,C, C,C, | C,E, A, x/ A,/ | D,D, D,D, | G,2 x G, | G,G, G,G, | G,G, G,G, | G,G, G,G, | %26
w: ||||||||
 G,2 || G,2 | G,G, G,G, | G,G, G,G, | G,G, G,G, | G,3 D, | G,G, G,G, | G,G, A,A, | D,D, D,D, | %35
w: |||||||||
 D,D, D,D, | D,2 D,2 | D,4 | x D CC | _B,>B, A,A, | G, x _B,2 | G,>G, =F,>F, | _E,2- E, x | %43
w: ||||||||
 C,2 C,C, | C,B,, C,B,, | C,2 x2 | x4 | _E, x x2 | x4 | D, x x2 | x4 | x2 ^C, x | D, x ^C, x | %53
w: ||||||||||
 D,4 || x2 D,2 | G,G, G,G, | G,G, G,G, | G,G, G,G, | G,3 D, | G,G, G,G, | G,G, A,A, | D,D, D,D, | %62
w: |||||||||
 D,D, D,D, | D,2 D,2 | D,2 x D, | D,>D, D,G, | C,G, C,2 | x4 | x D, D,C | B,B, A,C | B,G, D,C | %71
w: ||||||auch mich: *|||
 B,B, A,C | B,3 G, | C,C, C,C, | C,E, A, x/ A,/ | D,D, D,D, | G,2 x G, | G,G, G,G, | G,G, G,G, | %79
w: ||||||||
 G,G, G,G, | G,2 x2 |] %81
w: ||

